X: 30635
T: Onion Tree, The
R: reel
M: 4/4
K: Eminor
|:e2efg2gf|efed edBd|e2ef gfeg|f8|
e2efg2gf|efed edB2|BAGB AGFG|E8:|
B,2E2(G4|G)B,E(G G)EB,2|C2E2(G4|G)CE(G G)EC2|
D2F2(A4|A)DF(A A)FD2|E4F4|G2F2E2D2|
B,2E2(G4|G)B,E(G G)EB,2|C2E2(G4|G)CE(G G)EC2|
D2F2(A4|A)DF(A A)FD2|E4F4|G2A2B2d2||

